icons/sun-low.svg

<svg xmlns="http://www.w3.org/2000/svg" width="96" height="96"><path d="M30 48c0-4.8 1.9-9.4 5.3-12.7C38.6 31.9 43.2 30 48 30c4.8 0 9.4 1.9 12.7 5.3C64.1 38.6 66 43.2 66 48c0 4.8-1.9 9.4-5.3 12.7C57.4 64.1 52.8 66 48 66c-4.8 0-9.4-1.9-12.7-5.3C31.9 57.4 30 52.8 30 48zm8 0c0-2.7 1.1-5.2 2.9-7.1 1.9-1.8 4.4-2.9 7.1-2.9 2.7 0 5.2 1.1 7.1 2.9 1.8 1.9 2.9 4.4 2.9 7.1 0 2.7-1.1 5.2-2.9 7.1-1.9 1.8-4.4 2.9-7.1 2.9-2.7 0-5.2-1.1-7.1-2.9-1.8-1.9-2.9-4.4-2.9-7.1zm6-26c0-1.1.4-2.1 1.2-2.8.7-.8 1.7-1.2 2.8-1.2 1.1 0 2.1.4 2.8 1.2.8.7 1.2 1.7 1.2 2.8v2c0 1.1-.4 2.1-1.2 2.8-.7.8-1.7 1.2-2.8 1.2-1.1 0-2.1-.4-2.8-1.2-.8-.7-1.2-1.7-1.2-2.8v-2zm8 52c0 1.1-.4 2.1-1.2 2.8-.7.8-1.7 1.2-2.8 1.2-1.1 0-2.1-.4-2.8-1.2-.8-.7-1.2-1.7-1.2-2.8v-2c0-1.1.4-2.1 1.2-2.8.7-.8 1.7-1.2 2.8-1.2 1.1 0 2.1.4 2.8 1.2.8.7 1.2 1.7 1.2 2.8v2zm22-30c1.1 0 2.1.4 2.8 1.2.8.7 1.2 1.7 1.2 2.8 0 1.1-.4 2.1-1.2 2.8-.7.8-1.7 1.2-2.8 1.2h-2c-1.1 0-2.1-.4-2.8-1.2-.8-.7-1.2-1.7-1.2-2.8 0-1.1.4-2.1 1.2-2.8.7-.8 1.7-1.2 2.8-1.2h2zm-52 8c-1.1 0-2.1-.4-2.8-1.2-.8-.7-1.2-1.7-1.2-2.8 0-1.1.4-2.1 1.2-2.8.7-.8 1.7-1.2 2.8-1.2h2c1.1 0 2.1.4 2.8 1.2.8.7 1.2 1.7 1.2 2.8 0 1.1-.4 2.1-1.2 2.8-.7.8-1.7 1.2-2.8 1.2h-2zm4.2-20.2c-.8-.7-1.2-1.7-1.2-2.8 0-1.1.4-2.1 1.2-2.8.7-.8 1.7-1.2 2.8-1.2 1.1 0 2.1.4 2.8 1.2l2 2c.8.7 1.2 1.7 1.2 2.8 0 1.1-.4 2.1-1.2 2.8-.7.8-1.7 1.2-2.8 1.2-1.1 0-2.1-.4-2.8-1.2l-2-2zm38-5.6c.7-.8 1.7-1.2 2.8-1.2 1.1 0 2.1.4 2.8 1.2.8.7 1.2 1.7 1.2 2.8 0 1.1-.4 2.1-1.2 2.8l-2 2c-.7.8-1.7 1.2-2.8 1.2-1.1 0-2.1-.4-2.8-1.2-.8-.7-1.2-1.7-1.2-2.8 0-1.1.4-2.1 1.2-2.8l2-2zM33.8 67.8l-2 2c-.7.8-1.7 1.2-2.8 1.2-1.1 0-2.1-.4-2.8-1.2-.8-.7-1.2-1.7-1.2-2.8 0-1.1.4-2.1 1.2-2.8l2-2c.7-.8 1.7-1.2 2.8-1.2 1.1 0 2.1.4 2.8 1.2.8.7 1.2 1.7 1.2 2.8 0 1.1-.4 2.1-1.2 2.8zm34-5.6l2 2c.8.7 1.2 1.7 1.2 2.8 0 1.1-.4 2.1-1.2 2.8-.7.8-1.7 1.2-2.8 1.2-1.1 0-2.1-.4-2.8-1.2l-2-2c-.8-.7-1.2-1.7-1.2-2.8 0-1.1.4-2.1 1.2-2.8.7-.8 1.7-1.2 2.8-1.2 1.1 0 2.1.4 2.8 1.2z" fill-rule="evenodd" fill="#454545"/></svg>

<?xml version="1.0" standalone="no"?><!-- Generator: Gravit.io --><svg xmlns="http://www.w3.org/2000/svg" xmlns:xlink="http://www.w3.org/1999/xlink" width="96" height="96"><path d=" M 30 48 C 30 43.2 31.9 38.6 35.3 35.3 C 38.6 31.9 43.2 30 48 30 C 52.8 30 57.4 31.9 60.7 35.3 C 64.1 38.6 66 43.2 66 48 C 66 52.8 64.1 57.4 60.7 60.7 C 57.4 64.1 52.8 66 48 66 C 43.2 66 38.6 64.1 35.3 60.7 C 31.9 57.4 30 52.8 30 48 Z  M 38 48 C 38 45.3 39.1 42.8 40.9 40.9 C 42.8 39.1 45.3 38 48 38 C 50.7 38 53.2 39.1 55.1 40.9 C 56.9 42.8 58 45.3 58 48 C 58 50.7 56.9 53.2 55.1 55.1 C 53.2 56.9 50.7 58 48 58 C 45.3 58 42.8 56.9 40.9 55.1 C 39.1 53.2 38 50.7 38 48 Z  M 44 22 C 44 20.9 44.4 19.9 45.2 19.2 C 45.9 18.4 46.9 18 48 18 C 49.1 18 50.1 18.4 50.8 19.2 C 51.6 19.9 52 20.9 52 22 L 52 24 C 52 25.1 51.6 26.1 50.8 26.8 C 50.1 27.6 49.1 28 48 28 C 46.9 28 45.9 27.6 45.2 26.8 C 44.4 26.1 44 25.1 44 24 L 44 22 Z  M 52 74 C 52 75.1 51.6 76.1 50.8 76.8 C 50.1 77.6 49.1 78 48 78 C 46.9 78 45.9 77.6 45.2 76.8 C 44.4 76.1 44 75.1 44 74 L 44 72 C 44 70.9 44.4 69.9 45.2 69.2 C 45.9 68.4 46.9 68 48 68 C 49.1 68 50.1 68.4 50.8 69.2 C 51.6 69.9 52 70.9 52 72 L 52 74 Z  M 74 44 C 75.1 44 76.1 44.4 76.8 45.2 C 77.6 45.9 78 46.9 78 48 C 78 49.1 77.6 50.1 76.8 50.8 C 76.1 51.6 75.1 52 74 52 L 72 52 C 70.9 52 69.9 51.6 69.2 50.8 C 68.4 50.1 68 49.1 68 48 C 68 46.9 68.4 45.9 69.2 45.2 C 69.9 44.4 70.9 44 72 44 L 74 44 Z  M 22 52 C 20.9 52 19.9 51.6 19.2 50.8 C 18.4 50.1 18 49.1 18 48 C 18 46.9 18.4 45.9 19.2 45.2 C 19.9 44.4 20.9 44 22 44 L 24 44 C 25.1 44 26.1 44.4 26.8 45.2 C 27.6 45.9 28 46.9 28 48 C 28 49.1 27.6 50.1 26.8 50.8 C 26.1 51.6 25.1 52 24 52 L 22 52 Z  M 26.2 31.8 C 25.4 31.1 25 30.1 25 29 C 25 27.9 25.4 26.9 26.2 26.2 C 26.9 25.4 27.9 25 29 25 C 30.1 25 31.1 25.4 31.8 26.2 L 33.8 28.2 C 34.6 28.9 35 29.9 35 31 C 35 32.1 34.6 33.1 33.8 33.8 C 33.1 34.6 32.1 35 31 35 C 29.9 35 28.9 34.6 28.2 33.8 L 26.2 31.8 Z  M 64.2 26.2 C 64.9 25.4 65.9 25 67 25 C 68.1 25 69.1 25.4 69.8 26.2 C 70.6 26.9 71 27.9 71 29 C 71 30.1 70.6 31.1 69.8 31.8 L 67.8 33.8 C 67.1 34.6 66.1 35 65 35 C 63.9 35 62.9 34.6 62.2 33.8 C 61.4 33.1 61 32.1 61 31 C 61 29.9 61.4 28.9 62.2 28.2 L 64.2 26.2 Z  M 33.8 67.8 L 31.8 69.8 C 31.1 70.6 30.1 71 29 71 C 27.9 71 26.9 70.6 26.2 69.8 C 25.4 69.1 25 68.1 25 67 C 25 65.9 25.4 64.9 26.2 64.2 L 28.2 62.2 C 28.9 61.4 29.9 61 31 61 C 32.1 61 33.1 61.4 33.8 62.2 C 34.6 62.9 35 63.9 35 65 C 35 66.1 34.6 67.1 33.8 67.8 Z  M 67.8 62.2 L 69.8 64.2 C 70.6 64.9 71 65.9 71 67 C 71 68.1 70.6 69.1 69.8 69.8 C 69.1 70.6 68.1 71 67 71 C 65.9 71 64.9 70.6 64.2 69.8 L 62.2 67.8 C 61.4 67.1 61 66.1 61 65 C 61 63.9 61.4 62.9 62.2 62.2 C 62.9 61.4 63.9 61 65 61 C 66.1 61 67.1 61.4 67.8 62.2 Z " fill-rule="evenodd" fill="#454545" stroke="none"/><mask id="_mask_9tbYA8TuvCRBSsyX3kVEjmaOxXbSCa9J"><path d=" M 30 48 C 30 43.2 31.9 38.6 35.3 35.3 C 38.6 31.9 43.2 30 48 30 C 52.8 30 57.4 31.9 60.7 35.3 C 64.1 38.6 66 43.2 66 48 C 66 52.8 64.1 57.4 60.7 60.7 C 57.4 64.1 52.8 66 48 66 C 43.2 66 38.6 64.1 35.3 60.7 C 31.9 57.4 30 52.8 30 48 Z  M 38 48 C 38 45.3 39.1 42.8 40.9 40.9 C 42.8 39.1 45.3 38 48 38 C 50.7 38 53.2 39.1 55.1 40.9 C 56.9 42.8 58 45.3 58 48 C 58 50.7 56.9 53.2 55.1 55.1 C 53.2 56.9 50.7 58 48 58 C 45.3 58 42.8 56.9 40.9 55.1 C 39.1 53.2 38 50.7 38 48 Z  M 44 22 C 44 20.9 44.4 19.9 45.2 19.2 C 45.9 18.4 46.9 18 48 18 C 49.1 18 50.1 18.4 50.8 19.2 C 51.6 19.9 52 20.9 52 22 L 52 24 C 52 25.1 51.6 26.1 50.8 26.8 C 50.1 27.6 49.1 28 48 28 C 46.9 28 45.9 27.6 45.2 26.8 C 44.4 26.1 44 25.1 44 24 L 44 22 Z  M 52 74 C 52 75.1 51.6 76.1 50.8 76.8 C 50.1 77.6 49.1 78 48 78 C 46.9 78 45.9 77.6 45.2 76.8 C 44.4 76.1 44 75.1 44 74 L 44 72 C 44 70.9 44.4 69.9 45.2 69.2 C 45.9 68.4 46.9 68 48 68 C 49.1 68 50.1 68.4 50.8 69.2 C 51.6 69.9 52 70.9 52 72 L 52 74 Z  M 74 44 C 75.1 44 76.1 44.4 76.8 45.2 C 77.6 45.9 78 46.9 78 48 C 78 49.1 77.6 50.1 76.8 50.8 C 76.1 51.6 75.1 52 74 52 L 72 52 C 70.9 52 69.9 51.6 69.2 50.8 C 68.4 50.1 68 49.1 68 48 C 68 46.9 68.4 45.9 69.2 45.2 C 69.9 44.4 70.9 44 72 44 L 74 44 Z  M 22 52 C 20.9 52 19.9 51.6 19.2 50.8 C 18.4 50.1 18 49.1 18 48 C 18 46.9 18.4 45.9 19.2 45.2 C 19.9 44.4 20.9 44 22 44 L 24 44 C 25.1 44 26.1 44.4 26.8 45.2 C 27.6 45.9 28 46.9 28 48 C 28 49.1 27.6 50.1 26.8 50.8 C 26.1 51.6 25.1 52 24 52 L 22 52 Z  M 26.2 31.8 C 25.4 31.1 25 30.1 25 29 C 25 27.9 25.4 26.9 26.2 26.2 C 26.9 25.4 27.9 25 29 25 C 30.1 25 31.1 25.4 31.8 26.2 L 33.8 28.2 C 34.6 28.9 35 29.9 35 31 C 35 32.1 34.6 33.1 33.8 33.8 C 33.1 34.6 32.1 35 31 35 C 29.9 35 28.9 34.6 28.2 33.8 L 26.2 31.8 Z  M 64.2 26.2 C 64.9 25.4 65.9 25 67 25 C 68.1 25 69.1 25.4 69.8 26.2 C 70.6 26.9 71 27.9 71 29 C 71 30.1 70.6 31.1 69.8 31.8 L 67.8 33.8 C 67.1 34.6 66.1 35 65 35 C 63.9 35 62.9 34.6 62.2 33.8 C 61.4 33.1 61 32.1 61 31 C 61 29.9 61.4 28.9 62.2 28.2 L 64.2 26.2 Z  M 33.8 67.8 L 31.8 69.8 C 31.1 70.6 30.1 71 29 71 C 27.9 71 26.9 70.6 26.2 69.8 C 25.4 69.1 25 68.1 25 67 C 25 65.9 25.4 64.9 26.2 64.2 L 28.2 62.2 C 28.9 61.4 29.9 61 31 61 C 32.1 61 33.1 61.4 33.8 62.2 C 34.6 62.9 35 63.9 35 65 C 35 66.1 34.6 67.1 33.8 67.8 Z  M 67.8 62.2 L 69.8 64.2 C 70.6 64.9 71 65.9 71 67 C 71 68.1 70.6 69.1 69.8 69.8 C 69.1 70.6 68.1 71 67 71 C 65.9 71 64.9 70.6 64.2 69.8 L 62.2 67.8 C 61.4 67.1 61 66.1 61 65 C 61 63.9 61.4 62.9 62.2 62.2 C 62.9 61.4 63.9 61 65 61 C 66.1 61 67.1 61.4 67.8 62.2 Z " fill-rule="evenodd" fill="white" stroke="none"/></mask><path d=" M 30 48 C 30 43.2 31.9 38.6 35.3 35.3 C 38.6 31.9 43.2 30 48 30 C 52.8 30 57.4 31.9 60.7 35.3 C 64.1 38.6 66 43.2 66 48 C 66 52.8 64.1 57.4 60.7 60.7 C 57.4 64.1 52.8 66 48 66 C 43.2 66 38.6 64.1 35.3 60.7 C 31.9 57.4 30 52.8 30 48 Z  M 38 48 C 38 45.3 39.1 42.8 40.9 40.9 C 42.8 39.1 45.3 38 48 38 C 50.7 38 53.2 39.1 55.1 40.9 C 56.9 42.8 58 45.3 58 48 C 58 50.7 56.9 53.2 55.1 55.1 C 53.2 56.9 50.7 58 48 58 C 45.3 58 42.8 56.9 40.9 55.1 C 39.1 53.2 38 50.7 38 48 Z  M 44 22 C 44 20.9 44.4 19.9 45.2 19.2 C 45.9 18.4 46.9 18 48 18 C 49.1 18 50.1 18.4 50.8 19.2 C 51.6 19.9 52 20.9 52 22 L 52 24 C 52 25.1 51.6 26.1 50.8 26.8 C 50.1 27.6 49.1 28 48 28 C 46.9 28 45.9 27.6 45.2 26.8 C 44.4 26.1 44 25.1 44 24 L 44 22 Z  M 52 74 C 52 75.1 51.6 76.1 50.8 76.8 C 50.1 77.6 49.1 78 48 78 C 46.9 78 45.9 77.6 45.2 76.8 C 44.4 76.1 44 75.1 44 74 L 44 72 C 44 70.9 44.4 69.9 45.2 69.2 C 45.9 68.4 46.9 68 48 68 C 49.1 68 50.1 68.4 50.8 69.2 C 51.6 69.9 52 70.9 52 72 L 52 74 Z  M 74 44 C 75.1 44 76.1 44.4 76.8 45.2 C 77.6 45.9 78 46.9 78 48 C 78 49.1 77.6 50.1 76.8 50.8 C 76.1 51.6 75.1 52 74 52 L 72 52 C 70.9 52 69.9 51.6 69.2 50.8 C 68.4 50.1 68 49.1 68 48 C 68 46.9 68.4 45.9 69.2 45.2 C 69.9 44.4 70.9 44 72 44 L 74 44 Z  M 22 52 C 20.9 52 19.9 51.6 19.2 50.8 C 18.4 50.1 18 49.1 18 48 C 18 46.9 18.4 45.9 19.2 45.2 C 19.9 44.4 20.9 44 22 44 L 24 44 C 25.1 44 26.1 44.4 26.8 45.2 C 27.6 45.9 28 46.9 28 48 C 28 49.1 27.6 50.1 26.8 50.8 C 26.1 51.6 25.1 52 24 52 L 22 52 Z  M 26.2 31.8 C 25.4 31.1 25 30.1 25 29 C 25 27.9 25.4 26.9 26.2 26.2 C 26.9 25.4 27.9 25 29 25 C 30.1 25 31.1 25.4 31.8 26.2 L 33.8 28.2 C 34.6 28.9 35 29.9 35 31 C 35 32.1 34.6 33.1 33.8 33.8 C 33.1 34.6 32.1 35 31 35 C 29.9 35 28.9 34.6 28.2 33.8 L 26.2 31.8 Z  M 64.2 26.2 C 64.9 25.4 65.9 25 67 25 C 68.1 25 69.1 25.4 69.8 26.2 C 70.6 26.9 71 27.9 71 29 C 71 30.1 70.6 31.1 69.8 31.8 L 67.8 33.8 C 67.1 34.6 66.1 35 65 35 C 63.9 35 62.9 34.6 62.2 33.8 C 61.4 33.1 61 32.1 61 31 C 61 29.9 61.4 28.9 62.2 28.2 L 64.2 26.2 Z  M 33.8 67.8 L 31.8 69.8 C 31.1 70.6 30.1 71 29 71 C 27.9 71 26.9 70.6 26.2 69.8 C 25.4 69.1 25 68.1 25 67 C 25 65.9 25.4 64.9 26.2 64.2 L 28.2 62.2 C 28.9 61.4 29.9 61 31 61 C 32.1 61 33.1 61.4 33.8 62.2 C 34.6 62.9 35 63.9 35 65 C 35 66.1 34.6 67.1 33.8 67.8 Z  M 67.8 62.2 L 69.8 64.2 C 70.6 64.9 71 65.9 71 67 C 71 68.1 70.6 69.1 69.8 69.8 C 69.1 70.6 68.1 71 67 71 C 65.9 71 64.9 70.6 64.2 69.8 L 62.2 67.8 C 61.4 67.1 61 66.1 61 65 C 61 63.9 61.4 62.9 62.2 62.2 C 62.9 61.4 63.9 61 65 61 C 66.1 61 67.1 61.4 67.8 62.2 Z " fill-rule="evenodd" fill="none" stroke="none" stroke-width="16" mask="url(#_mask_9tbYA8TuvCRBSsyX3kVEjmaOxXbSCa9J)"/></svg>
